X: 224
T: Bidy Maloney
C: anon.
O: Ireland
B: Francis O'Neill: "The Dance Music of Ireland" (1907) no. 224
R: Double jig
Z: Transcribed by Frank Nordberg - http://www.musicaviva.com
F: http://www.musicaviva.com/abc/tunes/ireland/oneill-1001/oneill-1001-022
4.abc
M: 6/8
L: 1/8
K: D
(A/G/)|FGA AFA|AFA AFA|BGG AGF|BGE EGE|FGA AFA|AFA d2A|(B/c/d)B AFd|AFD D
2: |
|:(c/d/)|ecA AcA|ecA d2A|GBG FGA|BGE E2 (c/d/)|ecA dfa|gfe e2A|dcB AFd|AF
D D2::(f/g/)|a3 g3|fed cBA|
GBG FGA|BGE E2 (f/g/)|agf gbg|fed cBA|dcB AFd|AFD D2::(f/g/)|.a(f/g/a/f/)
 dfg|.a(f/g/a/f/) dga|.b(g/a/b/g/) ega|
.b(g/a/b/g/) efg|.a(f/g/a/f/) bgg|.a(f/g/a/f/) d2A|(B/c/d)B AFd|AFD D2:
:A|(d/e/d)c dAF|(d/e/d)c dAF|GBG FGA|BGE E2A|(d/e/d)c dAF|
(d/e/d)c dAF|dcd efg|fdd d2::g|(f/g/)ab afd|fd(f/g/) afd|g2e f2d|efe efg|
(f/g/)ab afd|(f/d/)fg afd|
gfg eag|fdd d2::g|fdf ece|dcB AGF|GBG FGA|BGE E2g|fdf ece|dcB AGF|(B/c/d)
B AFd|AFD D2:|
W:
W:
W: From Musica Viva - http://www.musicaviva.com
W: the Internet center for free sheet music downloads.


